material/.icons/material/reply-circle.svg

<svg xmlns="http://www.w3.org/2000/svg" viewBox="0 0 24 24"><path d="M2 12c0 5.5 4.5 10 10 10s10-4.5 10-10S17.5 2 12 2 2 6.5 2 12m3-1l5-5v3c5.06.73 7.28 4.33 8 8-1.81-2.57-4.39-4-8-4v3l-5-5z"/></svg>

<?xml version="1.0" encoding="UTF-8"?><!DOCTYPE svg PUBLIC "-//W3C//DTD SVG 1.1//EN" "http://www.w3.org/Graphics/SVG/1.1/DTD/svg11.dtd"><svg xmlns="http://www.w3.org/2000/svg" xmlns:xlink="http://www.w3.org/1999/xlink" version="1.1" id="mdi-reply-circle" width="24" height="24" viewBox="0 0 24 24"><path d="M2 12C2 17.5 6.5 22 12 22S22 17.5 22 12 17.5 2 12 2 2 6.5 2 12M5 11L10 6V9C15.06 9.73 17.28 13.33 18 17C16.19 14.43 13.61 13 10 13V16L5 11Z" /></svg>
